symbols/web/video_library/materialsymbolssharp/video_library_wght200gradN25fill1_24px.svg

<svg xmlns="http://www.w3.org/2000/svg" height="24" width="24"><path d="m11.4 13.55 5.45-3.5-5.45-3.475ZM6.5 17V3.15h13.85V17Zm-2.85 2.85V6.625h.925v12.3h12.3v.925Z"/></svg>

<svg xmlns="http://www.w3.org/2000/svg" height="24" width="24"><path d="M11.4 13.55 16.85 10.05 11.4 6.575ZM6.5 17V3.15H20.35V17ZM3.65 19.85V6.625H4.575V18.925H16.875V19.85Z"/></svg>
